build/svg/cmd/sc_showinvalid.svg

<?xml version="1.0" encoding="UTF-8" standalone="no"?>
<svg
   xmlns:dc="http://purl.org/dc/elements/1.1/"
   xmlns:cc="http://creativecommons.org/ns#"
   xmlns:rdf="http://www.w3.org/1999/02/22-rdf-syntax-ns#"
   xmlns:svg="http://www.w3.org/2000/svg"
   xmlns="http://www.w3.org/2000/svg"
   xmlns:sodipodi="http://sodipodi.sourceforge.net/DTD/sodipodi-0.dtd"
   xmlns:inkscape="http://www.inkscape.org/namespaces/inkscape"
   viewBox="0 0 16 16"
   version="1.1"
   id="svg6"
   sodipodi:docname="sc_showinvalid.svg"
   inkscape:version="0.92.5 (2060ec1f9f, 2020-04-08)"
   inkscape:export-filename="/home/jupiter007/Libreoffice yaru theme fullcolor/build/cmd/sc_showinvalid.png"
   inkscape:export-xdpi="95"
   inkscape:export-ydpi="95">
  <metadata
     id="metadata12">
    <rdf:RDF>
      <cc:Work
         rdf:about="">
        <dc:format>image/svg+xml</dc:format>
        <dc:type
           rdf:resource="http://purl.org/dc/dcmitype/StillImage" />
      </cc:Work>
    </rdf:RDF>
  </metadata>
  <defs
     id="defs10" />
  <sodipodi:namedview
     pagecolor="#ffffff"
     bordercolor="#666666"
     borderopacity="1"
     objecttolerance="10"
     gridtolerance="10"
     guidetolerance="10"
     inkscape:pageopacity="0"
     inkscape:pageshadow="2"
     inkscape:window-width="1920"
     inkscape:window-height="1011"
     id="namedview8"
     showgrid="true"
     inkscape:zoom="41.7193"
     inkscape:cx="5.0056889"
     inkscape:cy="6.8332538"
     inkscape:window-x="0"
     inkscape:window-y="32"
     inkscape:window-maximized="1"
     inkscape:current-layer="svg6">
    <inkscape:grid
       type="xygrid"
       id="grid822" />
  </sodipodi:namedview>
  <rect
     style="opacity:1;fill:#ffffff;fill-opacity:1;stroke:none;stroke-width:2;stroke-linecap:round;stroke-linejoin:round;stroke-miterlimit:4;stroke-dasharray:none;stroke-opacity:1"
     id="rect820"
     width="10"
     height="10"
     x="3.0000002"
     y="3" />
  <path
     d="m 2,4 v 8 c 0,2 1,2 3,2 H 9.0000004 10 11 c 2,0 3,0 3,-2 V 4 C 14,2 13,2 11,2 H 5 C 3,2 2,2 2,4 Z M 5,3 H 6 V 5 H 3.0000001 V 4 c 0,-1 1,-1 1.9999999,-1 z M 7.0000003,3 H 9.0000004 V 5 H 7.0000003 Z M 10,3 h 1 c 1,0 2,0 2,1 V 5 H 12 11 10 Z M 3,6 H 6 V 9 H 3.0000001 Z M 7.0000003,6 H 9.0000004 V 9 H 7.0000003 Z M 10,6 h 1 1 1 V 9 H 12 11 10 Z M 3.0000001,10 H 6 v 3 H 5 C 4.0000001,13 3.0000001,13 3.0000001,12 Z m 4.0000002,0 h 2.0000001 v 3 H 7.0000003 Z M 10,10 h 1 1 1 v 2 c 0,1 -1,1 -2,1 h -1 z"
     id="path2"
     inkscape:connector-curvature="0"
     style="fill:#c7162b;fill-opacity:1"
     sodipodi:nodetypes="cccccccccccccccccccccccccccccccccccccccccccccccccccccccccccccccccccc" />
</svg>

<svg xmlns="http://www.w3.org/2000/svg" viewBox="0 0 16 16"><path fill="#fff" d="M3 3h10v10H3z"/><path d="M2 4v8c0 2 1 2 3 2h6c2 0 3 0 3-2V4c0-2-1-2-3-2H5C3 2 2 2 2 4zm3-1h1v2H3V4c0-1 1-1 2-1zm2 0h2v2H7zm3 0h1c1 0 2 0 2 1v1h-3zM3 6h3v3H3zm4 0h2v3H7zm3 0h3v3h-3zm-7 4h3v3H5c-1 0-2 0-2-1zm4 0h2v3H7zm3 0h3v2c0 1-1 1-2 1h-1z" fill="#c7162b"/></svg>
